ui/StatusQ/src/assets/img/icons/clear.svg

<svg fill="none" height="17" viewBox="0 0 16 17" width="16" xmlns="http://www.w3.org/2000/svg"><path clip-rule="evenodd" d="m8 15.5c3.866 0 7-3.134 7-7 0-3.86599-3.134-7-7-7-3.86599 0-7 3.13401-7 7 0 3.866 3.13401 7 7 7zm3-10c.2441.24408.2441.63981 0 .88388l-2.11607 2.11612 2.11607 2.1161c.2441.2441.2441.6398 0 .8839-.244.2441-.6398.2441-.8838 0l-2.11615-2.11611-2.11612 2.11611c-.24408.2441-.63981.2441-.88388 0-.24408-.2441-.24408-.6398 0-.8839l2.11611-2.1161-2.11611-2.11611c-.24408-.24408-.24408-.63981 0-.88389.24407-.24407.6398-.24407.88388 0l2.11612 2.11612 2.11615-2.11612c.244-.24408.6398-.24408.8838 0z" fill="#000" fill-rule="evenodd"/></svg>

<svg width="16" height="17" viewBox="0 0 16 17" fill="none" xmlns="http://www.w3.org/2000/svg">
<path fill-rule="evenodd" clip-rule="evenodd" d="M8 15.5C11.866 15.5 15 12.366 15 8.5C15 4.63401 11.866 1.5 8 1.5C4.13401 1.5 1 4.63401 1 8.5C1 12.366 4.13401 15.5 8 15.5ZM11 5.5C11.2441 5.74408 11.2441 6.13981 11 6.38388L8.88393 8.5L11 10.6161C11.2441 10.8602 11.2441 11.2559 11 11.5C10.756 11.7441 10.3602 11.7441 10.1162 11.5L8.00005 9.38389L5.88393 11.5C5.63985 11.7441 5.24412 11.7441 5.00005 11.5C4.75597 11.2559 4.75597 10.8602 5.00005 10.6161L7.11616 8.5L5.00005 6.38389C4.75597 6.13981 4.75597 5.74408 5.00005 5.5C5.24412 5.25593 5.63985 5.25593 5.88393 5.5L8.00005 7.61612L10.1162 5.5C10.3602 5.25592 10.756 5.25592 11 5.5Z" fill="black"/>
</svg>
